client/public/assets/icons/utility/textbox.svg

<?xml version="1.0"?><svg xmlns="http://www.w3.org/2000/svg" width="52" height="52" viewBox="0 0 52 52"><path fill="#fff" d="m44.7 49.4h-37.4c-2.6 0-4.7-2.1-4.7-4.7v-37.4c0-2.6 2.1-4.7 4.7-4.7h37.5c2.6 0 4.7 2.1 4.7 4.7v37.5c-0.1 2.5-2.2 4.6-4.8 4.6z m-35.8-39v31.2c0 0.9 0.7 1.6 1.6 1.6h31.2c0.9 0 1.6-0.7 1.6-1.6v-31.2c0-0.9-0.7-1.6-1.6-1.6h-31.2c-0.9 0-1.6 0.7-1.6 1.6z m6.3 24.9v-18.6c0-0.9 0.7-1.6 1.6-1.6h3.1c0.9 0 1.6 0.7 1.6 1.6v18.6c0 0.9-0.7 1.6-1.6 1.6h-3.1c-0.9 0-1.6-0.7-1.6-1.6z"></path></svg>

<?xml version="1.0" encoding="utf-8"?>
<!-- Generator: Adobe Illustrator 21.1.0, SVG Export Plug-In . SVG Version: 6.00 Build 0)  -->
<svg version="1.1" id="Layer_1" xmlns="http://www.w3.org/2000/svg" xmlns:xlink="http://www.w3.org/1999/xlink" x="0px" y="0px"
	 width="52px" height="52px" viewBox="0 0 52 52" enable-background="new 0 0 52 52" xml:space="preserve">
<path fill="#FFFFFF" d="M44.7,49.4H7.3c-2.6,0-4.7-2.1-4.7-4.7V7.3c0-2.6,2.1-4.7,4.7-4.7h37.5c2.6,0,4.7,2.1,4.7,4.7v37.5
	C49.4,47.3,47.3,49.4,44.7,49.4z M8.9,10.4v31.2c0,0.9,0.7,1.6,1.6,1.6h31.2c0.9,0,1.6-0.7,1.6-1.6V10.4c0-0.9-0.7-1.6-1.6-1.6H10.5
	C9.6,8.8,8.9,9.5,8.9,10.4z"/>
<path fill="#FFFFFF" d="M15.2,35.3V16.7c0-0.9,0.7-1.6,1.6-1.6h3.1c0.9,0,1.6,0.7,1.6,1.6v18.6c0,0.9-0.7,1.6-1.6,1.6h-3.1
	C15.9,36.9,15.2,36.2,15.2,35.3z"/>
</svg>
